assets/img/feature-community.svg

<?xml version="1.0" encoding="UTF-8"?>
<svg width="48px" height="48px" viewBox="0 0 48 48" version="1.1" xmlns="http://www.w3.org/2000/svg" xmlns:xlink="http://www.w3.org/1999/xlink">
    <!-- Generator: Sketch 63.1 (92452) - https://sketch.com -->
    <title>icon_5</title>
    <desc>Created with Sketch.</desc>
    <g id="Page-1" stroke="none" stroke-width="1" fill="none" fill-rule="evenodd">
        <g id="landing" transform="translate(-128.000000, -953.000000)" fill-rule="nonzero">
            <g id="Group-5" transform="translate(128.000000, 953.000000)">
                <g id="icon_5">
                    <rect id="Rectangle" fill="#F5ECE9" x="0" y="0" width="48" height="48" rx="24"></rect>
                    <path d="M14,11 C12.351562,11 11,12.3582431 11,14.0148298 L11,30.0939223 C11,31.750509 12.351562,33.1087521 14,33.1087521 L23.695312,33.1087521 L31,38 L31,33.1087521 L34,33.1087521 C35.648438,33.1087521 37,31.750509 37,30.0939223 L37,14.0148298 C37,12.3582431 35.648438,11 34,11 L14,11 Z M14,13.0098866 L34,13.0098866 C34.5625,13.0098866 35,13.4495492 35,14.0148298 L35,30.0939223 C35,30.6592029 34.5625,31.0988656 34,31.0988656 L29,31.0988656 L29,34.2471639 L24.304688,31.0988656 L14,31.0988656 C13.4375,31.0988656 13,30.6592029 13,30.0939223 L13,14.0148298 C13,13.4495492 13.4375,13.0098866 14,13.0098866 Z M17,17.0296597 L17,19.0395462 L31,19.0395462 L31,17.0296597 L17,17.0296597 Z M17,21.0494328 L17,23.0593193 L31,23.0593193 L31,21.0494328 L17,21.0494328 Z M17,25.0692059 L17,27.0790925 L25,27.0790925 L25,25.0692059 L17,25.0692059 Z" id="Shape" fill="#BC7962"></path>
                </g>
            </g>
        </g>
    </g>
</svg>

<svg width="48" height="48" viewBox="0 0 48 48" xmlns="http://www.w3.org/2000/svg">
    <rect fill="#F5ECE9" width="48" height="48" rx="24"/>
    <path d="M14 11c-1.6484 0-3 1.3582-3 3.0148V30.094c0 1.6566 1.3516 3.0149 3 3.0149h9.6953L31 38v-4.8912h3c1.6484 0 3-1.3583 3-3.0149V14.015C37 12.3581 35.6484 11 34 11H14zm0 2.0099h20c.5625 0 1 .4396 1 1.005v16.079c0 .5653-.4375 1.005-1 1.005h-5v3.1483l-4.6953-3.1483H14c-.5625 0-1-.4397-1-1.005V14.015c0-.5654.4375-1.005 1-1.005zm3 4.0198v2.0098h14v-2.0098H17zm0 4.0197v2.01h14v-2.01H17zm0 4.0198v2.0099h8v-2.0099h-8z" fill="#BC7962"/>
</svg>
